!!!SOCIAL_FUNCTION:	songs connected with legends
!!!PDT:	1929
!!!OTL: No_8_Song_Concerning_the_Talking_Tree.krn
!!!REG: Southwest
!!!LANG: Non-Tone
!!!LING_GROUP: Uto-Aztecan
**kern
*staff1
=1-
*clefF4
*k[]
*M3/4
2c\
8c\L
8c\J
=2
4c\
8A\L
[8G\J
8G\]
8r
=3||
*M2/4
4.c\
8G\
=4||
*M3/4
4G\
8F\L
8D\J
4D\
=5
4G\
4F\
4D\
=6||
*M2/4
4.F\
8D\
=7
4F\
4r
=8||
*M3/4
2c\
8c\L
8c\J
=9
4c\
8A\L
[8G\J
8G\]
8r
=10||
*M2/4
4.c\
8G\
=11||
*M3/4
4G\
8F\L
8D\J
4D\
=12
4G\
4F\
4D\
=13||
*M2/4
[2F\
=14
4F\]
8r
8A\
=15
=
4.A\
8G\
=16
4.A\
8G\
=17
4A\
4G\
=18
8F\L
8D\J
8D\
8r
=19
4.G\
8F\
=20
4G\
4F\
=21
8D/L
8C/J
8C/
8r
=22
4r
12D/L
12C/
12C/J
=23
2C/
=24
4r
12C/L
12C/
12C/J
=25||
*M3/4
2C/
8F\L
8D\J
=26
4G\
4F\
4D\
=27||
*M2/4
4.F\
8D\
=28
4F\
4r
=29
4r
4C/
==:|!
*-
